lib/icons/cmd-key.svg

<svg width="16" height="16" viewBox="0 0 16 16" fill="none" xmlns="http://www.w3.org/2000/svg">
<path fill-rule="evenodd" clip-rule="evenodd" d="M0.885189 0.885189C1.45197 0.318412 2.22068 0 3.02222 0C3.82377 0 4.59248 0.318412 5.15926 0.885189C5.72603 1.45197 6.04445 2.22068 6.04445 3.02222V4.97778H9.95556V3.02222C9.95556 2.22068 10.274 1.45197 10.8407 0.885189C11.4075 0.318412 12.1762 0 12.9778 0C13.7793 0 14.548 0.318412 15.1148 0.885189C15.6816 1.45197 16 2.22068 16 3.02222C16 3.82377 15.6816 4.59248 15.1148 5.15926C14.548 5.72603 13.7793 6.04445 12.9778 6.04445H11.0222V9.95556H12.9778C13.7793 9.95556 14.548 10.274 15.1148 10.8407C15.6816 11.4075 16 12.1762 16 12.9778C16 13.7793 15.6816 14.548 15.1148 15.1148C14.548 15.6816 13.7793 16 12.9778 16C12.1762 16 11.4075 15.6816 10.8407 15.1148C10.274 14.548 9.95556 13.7793 9.95556 12.9778V11.0222H6.04445V12.9778C6.04445 13.7793 5.72603 14.548 5.15926 15.1148C4.59248 15.6816 3.82377 16 3.02222 16C2.22068 16 1.45197 15.6816 0.885189 15.1148C0.318412 14.548 0 13.7793 0 12.9778C0 12.1762 0.318412 11.4075 0.885189 10.8407C1.45197 10.274 2.22068 9.95556 3.02222 9.95556H4.97778V6.04445H3.02222C2.22068 6.04445 1.45197 5.72603 0.885189 5.15926C0.318412 4.59248 0 3.82377 0 3.02222C0 2.22068 0.318412 1.45197 0.885189 0.885189ZM4.97778 4.97778V3.02222C4.97778 2.50358 4.77175 2.00617 4.40501 1.63944C4.03827 1.2727 3.54087 1.06667 3.02222 1.06667C2.50358 1.06667 2.00617 1.2727 1.63944 1.63944C1.2727 2.00617 1.06667 2.50358 1.06667 3.02222C1.06667 3.54087 1.2727 4.03827 1.63944 4.40501C2.00617 4.77175 2.50358 4.97778 3.02222 4.97778H4.97778ZM6.04445 6.04445V9.95556H9.95556V6.04445H6.04445ZM4.97778 11.0222H3.02222C2.50358 11.0222 2.00617 11.2283 1.63944 11.595C1.2727 11.9617 1.06667 12.4591 1.06667 12.9778C1.06667 13.4964 1.2727 13.9938 1.63944 14.3606C2.00617 14.7273 2.50358 14.9333 3.02222 14.9333C3.54087 14.9333 4.03827 14.7273 4.40501 14.3606C4.77175 13.9938 4.97778 13.4964 4.97778 12.9778V11.0222ZM11.0222 11.0222V12.9778C11.0222 13.4964 11.2283 13.9938 11.595 14.3606C11.9617 14.7273 12.4591 14.9333 12.9778 14.9333C13.4964 14.9333 13.9938 14.7273 14.3606 14.3606C14.7273 13.9938 14.9333 13.4964 14.9333 12.9778C14.9333 12.4591 14.7273 11.9617 14.3606 11.595C13.9938 11.2283 13.4964 11.0222 12.9778 11.0222H11.0222ZM11.0222 4.97778H12.9778C13.4964 4.97778 13.9938 4.77175 14.3606 4.40501C14.7273 4.03827 14.9333 3.54087 14.9333 3.02222C14.9333 2.50358 14.7273 2.00617 14.3606 1.63944C13.9938 1.2727 13.4964 1.06667 12.9778 1.06667C12.4591 1.06667 11.9617 1.2727 11.595 1.63944C11.2283 2.00617 11.0222 2.50358 11.0222 3.02222V4.97778Z" fill="#7A859E"/>
</svg>

<svg width="16" height="16" fill="none" xmlns="http://www.w3.org/2000/svg"><path fill-rule="evenodd" clip-rule="evenodd" d="M.885.885a3.022 3.022 0 0 1 5.16 2.137v1.956h3.91V3.022a3.023 3.023 0 1 1 3.023 3.022h-1.956v3.912h1.956a3.023 3.023 0 1 1-3.022 3.022v-1.956H6.044v1.956a3.022 3.022 0 1 1-3.022-3.022h1.956V6.044H3.022A3.022 3.022 0 0 1 .885.885Zm4.093 4.093V3.022a1.956 1.956 0 1 0-1.956 1.956h1.956Zm1.066 1.066v3.912h3.912V6.044H6.044Zm-1.066 4.978H3.022a1.956 1.956 0 1 0 1.956 1.956v-1.956Zm6.044 0v1.956a1.956 1.956 0 1 0 1.956-1.956h-1.956Zm0-6.044h1.956a1.956 1.956 0 1 0-1.956-1.956v1.956Z" fill="#7A859E"/></svg>
